X: 7495
T: Coalminer's, The
R: reel
M: 4/4
K: Dmajor
A,DFD EDB,D|ADFD EDB,D|A,DFD EDB,D|dBAF EFDB,|
A,DFD EDB,D|ADFD EDB,D|A,DFD EDB,D|1 dBAF D CDB,:|2 dBAF D ABc||
~d3B ABdB|~A2 FD EDB,D|dcdB ABde|fedf ~e2de|
fd~d2 edBd|ABAF EDB,D|A,DFD EDB,D|1 dBAF D ABc:|2 dBAF D CDB,||

